assets/bank-tab/Asset/Cyber Suraksha.svg

<svg width="24" height="24" viewBox="0 0 24 24" fill="none" xmlns="http://www.w3.org/2000/svg">
<path fill-rule="evenodd" clip-rule="evenodd" d="M13.5979 0.950001C15.4536 2.75 17.9278 3.85 20.5567 4.05C21.3299 4.1 21.9485 4.75 22 5.55V8.5C22 14.85 18.4433 20.7 12.7732 23.8C12.5155 23.95 12.2577 24 12 24C11.7423 24 11.4845 23.95 11.2268 23.8C5.50515 20.7 2 14.85 2 8.5V5.55C2 4.75 2.61856 4.1 3.4433 4.05C6.07217 3.85 8.54639 2.75 10.4021 0.950001L10.9175 0.450001C11.1753 0.150001 11.5876 0 12 0C12.4124 0 12.7732 0.150001 13.0825 0.450001L13.5979 0.950001ZM16.6576 10.3684L12.0096 15.5263C11.7513 15.7895 11.3898 15.9474 11.0283 16C10.6668 16 10.3053 15.8421 10.047 15.5789L7.41316 12.8947C7.15494 12.6316 7 12.2632 7 11.8947C7 11.5263 7.15494 11.1579 7.41316 10.8947C7.92961 10.3684 8.80757 10.3684 9.32402 10.8947L10.9767 12.5789L14.6951 8.47369C14.9533 8.21053 15.2632 8.05263 15.6247 8C15.9862 8 16.3477 8.10526 16.606 8.36842C17.1224 8.94737 17.1224 9.84211 16.6576 10.3684Z" fill="#622970"/>
</svg>

<svg xmlns="http://www.w3.org/2000/svg" width="24" height="24" fill="none" viewBox="0 0 24 24"><path fill="#622970" fill-rule="evenodd" d="M13.598.95c1.856 1.8 4.33 2.9 6.959 3.1.773.05 1.392.7 1.443 1.5V8.5c0 6.35-3.557 12.2-9.227 15.3-.258.15-.515.2-.773.2a1.5 1.5 0 0 1-.773-.2C5.505 20.7 2 14.85 2 8.5V5.55c0-.8.619-1.45 1.443-1.5 2.63-.2 5.103-1.3 6.96-3.1l.515-.5C11.175.15 11.588 0 12 0q.618 0 1.082.45zm3.06 9.418-4.648 5.158c-.259.264-.62.421-.982.474-.361 0-.723-.158-.981-.421l-2.634-2.684a1.45 1.45 0 0 1-.413-1c0-.369.155-.737.413-1a1.354 1.354 0 0 1 1.911 0l1.653 1.684 3.718-4.105q.387-.394.93-.474c.361 0 .723.105.981.368.516.58.516 1.474.052 2" clip-rule="evenodd"/></svg>
